styles/icons/location-a03.svg

<?xml version="1.0" encoding="UTF-8"?>
<svg width="24px" height="24px" viewBox="0 0 24 24" version="1.1" xmlns="http://www.w3.org/2000/svg" xmlns:xlink="http://www.w3.org/1999/xlink">
    <!-- Generator: Sketch 47.1 (45422) - http://www.bohemiancoding.com/sketch -->
    <title>Icon/zoom/location-a03</title>
    <desc>Created with Sketch.</desc>
    <defs>
        <path d="M11,18.7269877 C8.04493218,18.2914726 5.70852743,15.9550678 5.27301227,13 L3.39219761,13 C3.17559285,13 3,12.8154297 3,12.5952702 L3,11.4047298 C3,11.1812037 3.17867947,11 3.39219761,11 L5.27301227,11 C5.70852743,8.04493218 8.04493218,5.70852743 11,5.27301227 L11,3.39219761 C11,3.17559285 11.1845703,3 11.4047298,3 L12.5952702,3 C12.8187963,3 13,3.17867947 13,3.39219761 L13,5.27301227 C15.9550678,5.70852743 18.2914726,8.04493218 18.7269877,11 L20.6078024,11 C20.8244071,11 21,11.1845703 21,11.4047298 L21,12.5952702 C21,12.8187963 20.8213205,13 20.6078024,13 L18.7269877,13 C18.2914726,15.9550678 15.9550678,18.2914726 13,18.7269877 L13,20.6078024 C13,20.8244071 12.8154297,21 12.5952702,21 L11.4047298,21 C11.1812037,21 11,20.8213205 11,20.6078024 L11,18.7269877 Z M12,17.2 C14.8718807,17.2 17.2,14.8718807 17.2,12 C17.2,9.1281193 14.8718807,6.8 12,6.8 C9.1281193,6.8 6.8,9.1281193 6.8,12 C6.8,14.8718807 9.1281193,17.2 12,17.2 Z M12,15.5 C10.0670034,15.5 8.5,13.9329966 8.5,12 C8.5,10.0670034 10.0670034,8.5 12,8.5 C13.9329966,8.5 15.5,10.0670034 15.5,12 C15.5,13.9329966 13.9329966,15.5 12,15.5 Z" id="path-1"></path>
    </defs>
    <g id="2.-Core" stroke="none" stroke-width="1" fill="none" fill-rule="evenodd">
        <g id="Core/Icons" transform="translate(-750.000000, -200.000000)">
            <g id="Zoom" transform="translate(670.000000, 120.000000)">
                <g id="Icon/zoom/location-a03" transform="translate(80.000000, 80.000000)">
                    <mask id="mask-2" fill="white">
                        <use xlink:href="#path-1"></use>
                    </mask>
                    <use id="Icon" fill="#CB3618" fill-rule="nonzero" xlink:href="#path-1"></use>
                </g>
            </g>
        </g>
    </g>
</svg>

<svg fill="#CB3618" height="24" width="24" viewBox="0 0 24 24" xmlns="http://www.w3.org/2000/svg">
    <path d="M11,18.7C8,18.3,5.7,16,5.3,13H3.4C3.2,13,3,12.8,3,12.6v-1.2C3,11.2,3.2,11,3.4,11h1.9C5.7,8,8,5.7,11,5.3V3.4C11,3.2,11.2,3,11.4,3h1.2C12.8,3,13,3.2,13,3.4v1.9c3,0.4,5.3,2.8,5.7,5.7h1.9c0.2,0,0.4,0.2,0.4,0.4v1.2c0,0.2-0.2,0.4-0.4,0.4h-1.9c-0.4,3-2.8,5.3-5.7,5.7v1.9c0,0.2-0.2,0.4-0.4,0.4h-1.2c-0.2,0-0.4-0.2-0.4-0.4V18.7z M12,17.2c2.9,0,5.2-2.3,5.2-5.2S14.9,6.8,12,6.8S6.8,9.1,6.8,12S9.1,17.2,12,17.2z M12,15.5c-1.9,0-3.5-1.6-3.5-3.5s1.6-3.5,3.5-3.5s3.5,1.6,3.5,3.5S13.9,15.5,12,15.5z"/>
</svg>
